X:248
T:Waiting for Nancy
C:Curt Bouterse 1972
R:reel
M:C|
K:D
"A"b2a2 b2a2 | b2a2 e2ef | "G" g2f2 e2ef |gagf e4 |
"A"b2a2 b2a2 | b2a2 e2ef | "G" g2f2 "A"edc2 | "D"d3c d4 :|
|: "C"=c4 e2ef | g2f2 e2ef | "C"g2f2 e2g2- | g2f2 e4 |
"C"=c4 e2ef | g2f2 e2ef | "C"gagf "A"edc2 | "D"d3c d4 :|
